X: 20
T: C'est bien malheur
N: Derived from Bus3012-Cest_bien_malheur.krn
C: Antoine Busnoys
%%abc-version 2.0
%%abcx-abcm2ps-target-version 5.9.1 (29 Sep 2008)
%%abc-creator hum2abc beta
%%abcx-conversion-date 2019/02/16 20:26:06
%%abc-edited-by Jesse Rodin
%%abc-edited-by Chris Gage 04-02-2015
%%abcx-initial-encoding-date 2015/05/01/
%%humdrum-veritas 2627639275
%%humdrum-veritas-data 2884864411
%%linebreak <none>
%%barnumbers 0
L: 1/4
M: 3/1
Q: 1/2=120
V: 1 clef=treble
V: 2 clef=treble-8
V: 3 clef=bass
K: F
[V:1] D6E2F4 | 
[V:2] d4B2G2A4 | 
[V:3] G,,8D,4 | 
[V:1] G2A2B4A4 | 
[V:2] G8c2d2 | 
[V:3] G,,8A,,3B,, | 
[V:1] G4F2D2E4 | 
[V:2] e4d2d4c2 | 
[V:3] C,4D,4A,,4 | 
[V:1] D2A3Bc3BAG | 
[V:2] f6e2d2cB | 
[V:3] z2D,4C,2F,3G, | 
[V:1] F8z4 | 
[V:2] A4z4D4 | 
[V:3] D,8F,4- | 
[V:1] F4F4G4 | 
[V:2] D8E4 | 
[V:3] F,4F,4C,4 | 
[V:1] A4B4B2B2 | 
[V:2] D4G8 | 
[V:3] z4G,,8 | 
[V:1] A3FG2A3BAG/F/ | 
[V:2] F2D2E2D4F2 | 
[V:3] z4C,2F,4D,2 | 
[V:1] E2F3GFE/D/^C3=B, | 
[V:2] G2A2D4E4 | 
[V:3] C,2A,,2B,,4A,,4 | 
[V:1] D4z4F4 | 
[V:2] D12 | 
[V:3] z2A,3G,F,3D,F,2 | 
[V:1] E3CD4A,4 | 
[V:2] z4f4e3c | 
[V:3] C,4B,,4C,4 | 
[V:1] z2B,2C2B,A,G,4 | 
[V:2] d4A4z2B2 | 
[V:3] B,,2G,,2F,,4B,,4 | 
[V:1] A,2C2B,4A,2A2- | 
[V:2] c2BAG4A2c2 | 
[V:3] A,,4z2E,2F,2A,2 | 
[V:1] A2G2A2GFE4 | 
[V:2] B4A2d4^c2 | 
[V:3] E,4F,3G,A,4 | 
[V:1] D8z4 | 
[V:2] d4z4d4 | 
[V:3] D,12- | 
[V:1] A,2B,2A,2D4^C2 | 
[V:2] f8e4 | 
[V:3] D,8A,,4 | 
[V:1] D2A,3B,C2B,4 | 
[V:2] f6e2d4 | 
[V:3] z2D,4C,2G,,4 | 
[V:1] A,4z2A4G2 | 
[V:2] e6c2A2B2 | 
[V:3] z4A,,4D,4 | 
[V:1] E4F2EDC4 | 
[V:2] c4d4e4- | 
[V:3] C,4B,,4A,,4- | 
[V:1] z4A,2B,2A,2C2- | 
[V:2] e4c2d2c2A2- | 
[V:3] A,,4z4A,,4 | 
[V:1] C2D2C2F4E2 | 
[V:2] A2B2c2A2G4 | 
[V:3] C,2B,,2A,,3B,,C,4 | 
[V:1] F2E3DD4^C2 | 
[V:2] F2G2D4E4 | 
[V:3] D,2G,,4B,,2A,,4 | 
[V:1] D2F3EA4G2 | 
[V:2] D2A4c2=B4 | 
[V:3] D,4A,,4z2E,2 | 
[V:1] c2=B3AA4^G2 | 
[V:2] A2G2c4=B4 | 
[V:3] F,2G,2A,4E,4 | 
[V:1] A12 |]  
[V:2] A12 |]  
[V:3] A,,12 |]  



